src/renderer/assets/icon/subtitleEdit-active-icon.svg

<?xml version="1.0" encoding="UTF-8"?>
<svg width="13px" height="13px" viewBox="0 0 13 13" version="1.1" xmlns="http://www.w3.org/2000/svg" xmlns:xlink="http://www.w3.org/1999/xlink">
    <!-- Generator: Sketch 53.1 (72631) - https://sketchapp.com -->
    <desc>Created with Sketch.</desc>
    <defs>
        <radialGradient cx="84.2036702%" cy="81.3988863%" fx="84.2036702%" fy="81.3988863%" r="120.39528%" gradientTransform="translate(0.842037,0.813989),scale(0.912285,1.000000),rotate(-140.053032),translate(-0.842037,-0.813989)" id="radialGradient-1">
            <stop stop-color="#FFFFFF" stop-opacity="0.775928442" offset="0%"></stop>
            <stop stop-color="#FFFFFF" stop-opacity="0.508378623" offset="100%"></stop>
        </radialGradient>
    </defs>
    <g id="Icons/subtitleEdit-active-icon" stroke="none" stroke-width="1" fill="none" fill-rule="evenodd" fill-opacity="0.2" stroke-opacity="0.04">
        <path d="M1.50694362,6.05922857 C1.50694362,5.93802968 1.60519473,5.83977857 1.72639362,5.83977857 L5.51332392,5.83977857 C5.6345228,5.83977857 5.73277392,5.93802968 5.73277392,6.05922857 L5.73277392,6.42032857 C5.73277392,6.54152746 5.6345228,6.63977857 5.51332392,6.63977857 L1.72639362,6.63977857 C1.60519473,6.63977857 1.50694362,6.54152746 1.50694362,6.42032857 L1.50694362,6.05922857 Z M1.50694362,3.76599085 C1.50694362,3.64479196 1.60519473,3.54654085 1.72639362,3.54654085 L6.28055,3.54654085 C6.40174889,3.54654085 6.5,3.64479196 6.5,3.76599085 L6.5,4.12709085 C6.5,4.24828974 6.40174889,4.34654085 6.28055,4.34654085 L1.72639362,4.34654085 C1.60519473,4.34654085 1.50694362,4.24828974 1.50694362,4.12709085 L1.50694362,3.76599085 Z M7.29974148,6.08948916 C7.21404092,6.0037886 7.21404092,5.86484055 7.29974148,5.77913999 L11.2671202,1.81176128 C11.3528207,1.72606073 11.4917688,1.72606073 11.5774694,1.81176128 L11.8328056,2.06709754 C11.9185062,2.1527981 11.9185062,2.29174615 11.8328056,2.37744671 L7.8654269,6.34482542 C7.77972635,6.43052597 7.64077829,6.43052597 7.55507774,6.34482542 L7.29974148,6.08948916 Z M1.50694362,8.35246629 C1.50694362,8.2312674 1.60519473,8.13301629 1.72639362,8.13301629 L8.5423402,8.13301629 C8.66353909,8.13301629 8.7617902,8.2312674 8.7617902,8.35246629 L8.7617902,8.71356629 C8.7617902,8.83476518 8.66353909,8.93301629 8.5423402,8.93301629 L1.72639362,8.93301629 C1.60519473,8.93301629 1.50694362,8.83476518 1.50694362,8.71356629 L1.50694362,8.35246629 Z M1.50694362,10.645704 C1.50694362,10.5245051 1.60519473,10.426254 1.72639362,10.426254 L10.649595,10.426254 C10.7707939,10.426254 10.869045,10.5245051 10.869045,10.645704 L10.869045,11.006804 C10.869045,11.1280029 10.7707939,11.226254 10.649595,11.226254 L1.72639362,11.226254 C1.60519473,11.226254 1.50694362,11.1280029 1.50694362,11.006804 L1.50694362,10.645704 Z" id="Combined-Shape" stroke="#FFFFFF" stroke-width="0.5" fill="url(#radialGradient-1)"></path>
    </g>
</svg>

<svg width="13" height="13" xmlns="http://www.w3.org/2000/svg">
    <defs>
        <radialGradient cx="84.204%" cy="81.399%" fx="84.204%" fy="81.399%" r="120.395%" gradientTransform="scale(-.91229 -1) rotate(39.947 2.2 -2.428)" id="a">
            <stop stop-color="#FFF" stop-opacity=".776" offset="0%"/>
            <stop stop-color="#FFF" stop-opacity=".508" offset="100%"/>
        </radialGradient>
    </defs>
    <path d="M1.507 6.06a.22.22 0 01.22-.22h3.786a.22.22 0 01.22.22v.36a.22.22 0 01-.22.22H1.726a.22.22 0 01-.22-.22v-.36zm0-2.294a.22.22 0 01.22-.22H6.28a.22.22 0 01.219.22v.361a.22.22 0 01-.22.22H1.727a.22.22 0 01-.22-.22v-.361zM7.3 6.089a.22.22 0 010-.31l3.967-3.967a.22.22 0 01.31 0l.256.255a.22.22 0 010 .31L7.865 6.345a.22.22 0 01-.31 0L7.3 6.089zM1.507 8.352a.22.22 0 01.22-.219h6.815a.22.22 0 01.22.22v.36a.22.22 0 01-.22.22H1.726a.22.22 0 01-.22-.22v-.36zm0 2.294a.22.22 0 01.22-.22h8.923a.22.22 0 01.219.22v.36a.22.22 0 01-.22.22H1.727a.22.22 0 01-.22-.22v-.36z" stroke="#FFF" stroke-width=".5" fill="url(#a)" fill-rule="evenodd" fill-opacity=".2" stroke-opacity=".04"/>
</svg>
